Numix-Light/scalable/status/weather-showers-symbolic.svg

<?xml version="1.0" encoding="UTF-8" standalone="no"?>
<svg
   xmlns:dc="http://purl.org/dc/elements/1.1/"
   xmlns:cc="http://creativecommons.org/ns#"
   xmlns:rdf="http://www.w3.org/1999/02/22-rdf-syntax-ns#"
   xmlns:svg="http://www.w3.org/2000/svg"
   xmlns="http://www.w3.org/2000/svg"
   xmlns:sodipodi="http://sodipodi.sourceforge.net/DTD/sodipodi-0.dtd"
   xmlns:inkscape="http://www.inkscape.org/namespaces/inkscape"
   width="16"
   viewBox="0 0 16 16"
   height="16"
   style="enable-background:new"
   id="svg2"
   version="1.1"
   inkscape:version="0.91 r"
   sodipodi:docname="weather-showers-symbolic.svg">
  <metadata
     id="metadata105">
    <rdf:RDF>
      <cc:Work
         rdf:about="">
        <dc:format>image/svg+xml</dc:format>
        <dc:type
           rdf:resource="http://purl.org/dc/dcmitype/StillImage" />
      </cc:Work>
    </rdf:RDF>
  </metadata>
  <sodipodi:namedview
     pagecolor="#ffffff"
     bordercolor="#666666"
     borderopacity="1"
     objecttolerance="10"
     gridtolerance="10"
     guidetolerance="10"
     inkscape:pageopacity="0"
     inkscape:pageshadow="2"
     inkscape:window-width="640"
     inkscape:window-height="480"
     id="namedview103" />
  <defs
     id="defs4" />
  <path
     style="fill:#353535"
     d="M 5.1850595,0.50007267 C 5.0311516,0.49911793 4.8740534,0.50748811 4.7068614,0.52990561 2.0367289,0.88789509 2.1189652,3.2745168 2.1189652,3.2745168 1.0253225,3.4681679 0.13116114,4.4626725 0.13116114,5.5020333 c 0,1.0393766 1.14288206,1.9600422 2.10032156,2.2275196 0.5695186,0.1591085 1.3127004,0 1.3127004,0 0.338073,0.6210165 1.4541865,1.0342054 2.231592,1.0342054 1.2676028,0 2.5644556,-0.4375485 2.864501,-1.0342054 0,0 5.2536099,0.4375484 6.3431569,0 1.586135,-0.6369752 1.092861,-2.6286322 0.03751,-3.3015023 -1.055355,-0.6728668 -2.437872,-0.1988858 -2.437872,-0.1988858 0,0 -0.0077,-1.3690463 -1.500229,-2.0236505 -1.4924798,-0.6546139 -2.7519838,0.7905625 -2.7519838,0.7905625 0,0 -0.8371576,-2.48117989 -3.1457947,-2.49600401 z M 2.3674407,8.4853183 C 1.5701593,8.8774572 -0.35179826,10.320732 0.05614954,10.861986 0.46408634,11.403258 1.9798761,9.3185857 2.3674407,8.4853183 z M 14.509923,8.7438697 c -0.797279,0.3921229 -2.723925,1.8304483 -2.315978,2.3717033 0.407938,0.541271 1.928415,-1.5384516 2.315978,-2.3717033 z m -3.066092,0.124311 C 10.646548,9.2603037 8.7199017,10.703595 9.1278507,11.244848 9.5357875,11.78612 11.056265,9.7014322 11.443831,8.8681807 z M 8.6824696,9.2659361 C 7.8851894,9.6580756 5.9585441,11.101366 6.3664907,11.64262 6.7744275,12.183893 8.2949049,10.099204 8.6824696,9.2659361 z M 5.4241586,9.6288945 C 4.6268772,10.021035 2.7002307,11.464323 3.1081796,12.005579 3.5161153,12.546851 5.0365939,10.462162 5.4241586,9.6288945 z M 2.4612053,11.428811 c -0.7972826,0.392138 -2.72392776,1.835429 -2.31598006,2.376683 0.4079369,0.541272 1.92841536,-1.543415 2.31598006,-2.376683 z m 8.8372897,0.243642 c -0.797281,0.392139 -2.7239253,1.835429 -2.3159788,2.376684 0.4079369,0.541271 1.9284138,-1.543416 2.3159788,-2.376684 z M 8.1339486,12.33872 C 7.336666,12.730859 5.4100208,14.174149 5.8179685,14.715405 6.2259054,15.256676 7.746384,13.171989 8.1339486,12.33872 z m 4.7585404,0.482291 c -0.797281,0.392139 -2.723928,1.835428 -2.315979,2.376683 0.407936,0.541272 1.928414,-1.543416 2.315979,-2.376683 z M 5.0537891,13.03482 C 4.2565089,13.426959 2.3298636,14.870249 2.7378102,15.411504 3.145747,15.952777 4.6662269,13.868089 5.0537891,13.03482 z"
     id="path101" />
</svg>

<svg xmlns="http://www.w3.org/2000/svg" viewBox="0 0 16 16" style="enable-background:new">
 <path d="m 5.185 0.5 c -0.154 -0.001 -0.311 0.007 -0.478 0.03 -2.67 0.358 -2.588 2.745 -2.588 2.745 -1.094 0.194 -1.988 1.188 -1.988 2.228 c 0 1.039 1.143 1.96 2.1 2.228 0.57 0.159 1.313 0 1.313 0 0.338 0.621 1.454 1.034 2.232 1.034 1.268 0 2.564 -0.438 2.865 -1.034 0 0 5.254 0.438 6.343 0 1.586 -0.637 1.093 -2.629 0.038 -3.302 -1.055 -0.673 -2.438 -0.199 -2.438 -0.199 0 0 -0.008 -1.369 -1.5 -2.024 -1.492 -0.655 -2.752 0.791 -2.752 0.791 0 0 -0.837 -2.481 -3.146 -2.496 z m -2.818 7.985 c -0.797 0.392 -2.719 1.835 -2.311 2.377 0.408 0.541 1.924 -1.543 2.311 -2.377 z m 12.142 0.259 c -0.797 0.392 -2.724 1.83 -2.316 2.372 0.408 0.541 1.928 -1.538 2.316 -2.372 z m -3.066 0.124 c -0.797 0.392 -2.724 1.835 -2.316 2.377 0.408 0.541 1.928 -1.543 2.316 -2.377 z m -2.761 0.398 c -0.797 0.392 -2.724 1.835 -2.316 2.377 0.408 0.541 1.928 -1.543 2.316 -2.377 z m -3.258 0.363 c -0.797 0.392 -2.724 1.835 -2.316 2.377 0.408 0.541 1.928 -1.543 2.316 -2.377 z m -2.963 1.8 c -0.797 0.392 -2.724 1.835 -2.316 2.377 0.408 0.541 1.928 -1.543 2.316 -2.377 z m 8.837 0.244 c -0.797 0.392 -2.724 1.835 -2.316 2.377 0.408 0.541 1.928 -1.543 2.316 -2.377 z m -3.165 0.666 c -0.797 0.392 -2.724 1.835 -2.316 2.377 0.408 0.541 1.928 -1.543 2.316 -2.377 z m 4.759 0.482 c -0.797 0.392 -2.724 1.835 -2.316 2.377 0.408 0.541 1.928 -1.543 2.316 -2.377 z m -7.839 0.214 c -0.797 0.392 -2.724 1.835 -2.316 2.377 0.408 0.541 1.928 -1.543 2.316 -2.377 z" style="fill:#353535"/>
</svg>
